assets/shopping-grey/ShoppingGrey2.svg

<svg xmlns="http://www.w3.org/2000/svg" data-name="Layer 3" viewBox="0 0 128 128"><path d="M102.453 41.425a8.378 8.378 0 00-6.477-2.864h-50.92a8.378 8.378 0 00-6.477 2.864c-.124.144-.232.3-.344.448l-3.554-17.551a1.591 1.591 0 00-1.559-1.276h-7.957a1.591 1.591 0 100 3.182h6.655l6.162 30.432L42.1 83.913h.044l1.152 6.255a1.591 1.591 0 001.565 1.3h51.513a1.591 1.591 0 000-3.182H46.181l-.806-4.376h53.562l5.382-35.656a8.376 8.376 0 00-1.866-6.829zm-57.4.319h50.923a5.243 5.243 0 014.064 1.758 4.953 4.953 0 011.115 2.561H39.876a4.953 4.953 0 011.115-2.563 5.243 5.243 0 014.065-1.756zM96.2 80.73H44.834l-4.753-31.485h60.87z"/><circle cx="50.493" cy="99.692" r="5.262"/><circle cx="91.112" cy="99.692" r="5.262"/><path d="M51.2 53.961a1.591 1.591 0 10-3.117.64l4.238 20.634a1.591 1.591 0 103.117-.64zM59.9 52.55a1.591 1.591 0 00-1.4 1.758l2.348 20.934a1.591 1.591 0 001.579 1.414 1.541 1.541 0 00.179-.01 1.591 1.591 0 001.4-1.758l-2.349-20.934A1.6 1.6 0 0059.9 52.55zM91.432 52.723a1.588 1.588 0 00-1.879 1.239L85.316 74.6a1.591 1.591 0 103.117.64l4.238-20.64a1.591 1.591 0 00-1.239-1.877zM80.851 52.55a1.6 1.6 0 00-1.758 1.4l-2.349 20.937a1.591 1.591 0 001.4 1.758 1.542 1.542 0 00.18.01 1.591 1.591 0 001.579-1.414l2.348-20.934a1.591 1.591 0 00-1.4-1.757zM70.516 52.54a1.591 1.591 0 00-1.591 1.591v20.933a1.591 1.591 0 003.183 0V54.131a1.591 1.591 0 00-1.592-1.591z"/></svg>

<svg id="Layer_3" data-name="Layer 3" xmlns="http://www.w3.org/2000/svg" viewBox="0 0 128 128"><title>Artboard 98</title><path d="M102.453,41.425a8.378,8.378,0,0,0-6.477-2.864H45.056a8.378,8.378,0,0,0-6.477,2.864c-.124.144-.232.3-.344.448L34.681,24.322a1.591,1.591,0,0,0-1.559-1.276H25.165a1.591,1.591,0,1,0,0,3.182H31.82l6.162,30.432L42.1,83.913h.044l1.152,6.255a1.591,1.591,0,0,0,1.565,1.3H96.374a1.591,1.591,0,0,0,0-3.182H46.181l-.806-4.376H98.937l5.382-35.656A8.376,8.376,0,0,0,102.453,41.425Zm-57.4.319H95.976a5.243,5.243,0,0,1,4.064,1.758,4.953,4.953,0,0,1,1.115,2.561H39.876A4.953,4.953,0,0,1,40.991,43.5,5.243,5.243,0,0,1,45.056,41.744ZM96.2,80.73H44.834L40.081,49.245h60.87Z"/><circle cx="50.493" cy="99.692" r="5.262"/><circle cx="91.112" cy="99.692" r="5.262"/><path d="M51.2,53.961a1.591,1.591,0,1,0-3.117.64l4.238,20.634a1.591,1.591,0,1,0,3.117-.64Z"/><path d="M59.9,52.55a1.591,1.591,0,0,0-1.4,1.758l2.348,20.934a1.591,1.591,0,0,0,1.579,1.414,1.541,1.541,0,0,0,.179-.01,1.591,1.591,0,0,0,1.4-1.758L61.657,53.954A1.6,1.6,0,0,0,59.9,52.55Z"/><path d="M91.432,52.723a1.588,1.588,0,0,0-1.879,1.239L85.316,74.6a1.591,1.591,0,1,0,3.117.64L92.671,54.6A1.591,1.591,0,0,0,91.432,52.723Z"/><path d="M80.851,52.55a1.6,1.6,0,0,0-1.758,1.4L76.744,74.887a1.591,1.591,0,0,0,1.4,1.758,1.542,1.542,0,0,0,.18.01,1.591,1.591,0,0,0,1.579-1.414l2.348-20.934A1.591,1.591,0,0,0,80.851,52.55Z"/><path d="M70.516,52.54a1.591,1.591,0,0,0-1.591,1.591V75.064a1.591,1.591,0,0,0,3.183,0V54.131A1.591,1.591,0,0,0,70.516,52.54Z"/></svg>
